X:1
T:Montclair, 87.87.88.87
T:Montclair, 87.87.88.87
T:William Batchelder Bradbury, 1861
T:Public Domain, Courtesy of the Cyber Hymnal™
C:William Batchelder Bradbury, 1861
Z:Public Domain,
Z:Courtesy of the Cyber Hymnal™
%%score ( 1 2 ) ( 3 4 )
L:1/8
Q:1/4=95
M:3/4
K:C
V:1 treble 
V:2 treble 
V:3 bass 
V:4 bass 
V:1
 [EG][Ec] | [Fc]2 [FB]2 D[DF] | [EA]2 [EG]2 G[Gc] | [FB]3 [FG] [FA][FB] | [Ec]4 [EG][Ec] | %5
 [Fc]2 [FB]2 D[DF] | [EA]2 [EG]2 G[Gc] | [FB]3 [FG] [FA][FB] | [Ec]4 [Ec][GB] | %9
 [FA]3 [GB] [Ac][FA] | [FA]2 [EG]2 [Ec][GB] | [FA]3 [FB] [Fc][FA] | [FA]2 [EG]2 [EG][Ec] | %13
 [Ge]3 [Gd] [Gc][GB] | [Ad]2 [Ac]2 [GB][FA] | [EG]3 [Ec] [FB][Fd] | [Ec]4 |] %17
V:2
 x2 | x4 D x | x4 G x | x6 | x6 | x4 D x | x4 G x | x6 | x6 | x6 | x6 | x6 | x6 | x6 | x6 | x6 | %16
 x4 |] %17
V:3
 [C,G,][C,G,] | [D,G,]2 [D,G,]2 [G,B,][G,B,] | [C,C]2 [C,C]2 [E,C][E,C] | [G,D]3 [G,B,] [G,B,]G, | %4
 [C,G,]4 [C,G,][C,G,] | [D,G,]2 [D,G,]2 [G,B,][G,B,] | [C,C]2 [C,C]2 [E,C][E,C] | %7
 [G,D]3 [G,B,] [G,B,]G, | [C,G,]4 [C,C][E,C] | [F,C]3 [F,C] [F,C][F,C] | [C,C]2 [C,C]2 [C,C][C,C] | %11
 [F,C]3 [G,C] [A,C][F,C] | [C,C]2 [C,C]2 [C,C][C,C] | [C,C]3 [D,B,] [E,C][E,C] | %14
 [F,C]2 [F,C]2 [F,C][F,C] | [G,C]3 [G,C] [G,,D][G,,B,] | [C,G,]4 |] %17
V:4
 x2 | x6 | x6 | x5 G, | x6 | x6 | x6 | x5 G, | x6 | x6 | x6 | x6 | x6 | x6 | x6 | x6 | x4 |] %17

